X: 1690
T: Polska från Sunhult
O: Sunhult, Småland
Z: Till abc av Jon Magnusson 091109 
R: Slängpolska
M: 3/4
L: 1/16
K: Am
A2a2 a^gbg g2e2|A2a2 a^gbg e4|edef gfed efed|cBA^G A2E2 C2E2|
A2a2 a^gbg g2e2|A2a2 a^gbg e4|edef gfed efed|[1 cBA^G G2A2 A4:|[2 cBA^G G2A2 A3B|]
|:c3c BcdB G4|cdef gfed f2e2|c2ec BcdB G4|cdef gfed f2e2|c2ec B2eB A3B|
cBA^G ABcd e2a2|cBA^G ABcd e2a2|cBA^G G2A2 A4:|
(:musicend:)
(:music:)
